X:18760
T:Wiills me I getten Shott on her
M:6/4
L:1/4
S:Henry Atkinson 1694/5 transcribed by John Stokoe 1883
K:A Minor
g3e3|G>ABdBG|g3e3|c>dcecA|g3e3|G>ABdBG|c2AA>BA|c>deecA|c2AA>BA|G>ABdBG|c
2AA>BA|c>deecA|c2AA>BA|G>ABdBG|g3e3|g>agecA||


